icon/ir/package-lock.svg

<svg stroke-width="1.5" viewBox="0 0 24 24" fill="none" xmlns="http://www.w3.org/2000/svg" height="1em" width="1em">
  <path d="M14 20H6C4.89543 20 4 19.1046 4 18V6C4 4.89543 4.89543 4 6 4H18C19.1045 4 19.9999 4.89543 20 5.99999L20 12" stroke="currentColor" stroke-linecap="round" stroke-linejoin="round"/>
  <path d="M12 9V4" stroke="currentColor" stroke-linecap="round" stroke-linejoin="round"/>
  <path d="M21.1667 18.5H21.4C21.7314 18.5 22 18.7686 22 19.1V21.4C22 21.7314 21.7314 22 21.4 22H17.6C17.2686 22 17 21.7314 17 21.4V19.1C17 18.7686 17.2686 18.5 17.6 18.5H17.8333M21.1667 18.5V16.75C21.1667 16.1667 20.8333 15 19.5 15C18.1667 15 17.8333 16.1667 17.8333 16.75V18.5M21.1667 18.5H17.8333" stroke="currentColor" stroke-linecap="round" stroke-linejoin="round"/>
</svg>

<svg width="24" height="24" stroke-width="1.5" fill="none" xmlns="http://www.w3.org/2000/svg"><path d="M14 20H6a2 2 0 0 1-2-2V6a2 2 0 0 1 2-2h12a2 2 0 0 1 2 2v6M12 9V4M21.167 18.5h.233a.6.6 0 0 1 .6.6v2.3a.6.6 0 0 1-.6.6h-3.8a.6.6 0 0 1-.6-.6v-2.3a.6.6 0 0 1 .6-.6h.233m3.334 0v-1.75c0-.583-.334-1.75-1.667-1.75s-1.667 1.167-1.667 1.75v1.75m3.334 0h-3.334" stroke="currentColor" stroke-linecap="round" stroke-linejoin="round"/></svg>
